X:1
T:Aboyne Castle [1]
T:Aboyne Castle [1]
T:Alexander Walker
C:Alexander Walker
L:1/8
Q:1/4=120
M:2/4
K:D
V:1 treble 
V:1
"^Slow" A, | D2 F>A | (F3/2E/4D/4) B,2 | D2 F>A | B<(EE>)F | D2 F>A | (F3/2E/4D/4) B,>d | %7
 B>d A/F/E/D/ | FD D :| A | d>af>a | (g/f/).e/.d/ B2 | d>ef>a | b<ee>f | d>af>a | %15
 g/f/g/b/ !fermata!b>a | d'>Ba>g | e(dd)A | d>af>a | (g/f/)e/d/ B2 | d>af>a | bee>g | %22
 f/e/d/f/ e>c | d/c/B/A/ d>B | B/A/G/F/ A/G/F/E/ | FD D || %26

